packages/core/src/svgs/ncdt.svg

<svg width="24" height="24" viewBox="0 0 24 24" fill="none" xmlns="http://www.w3.org/2000/svg">
<g clip-path="url(#clip0_31_14625)">
<path d="M0 0H24V24H0V0Z" fill="#F0F3FA"/>
<path d="M2.14293 11.5714H2.5715V12H2.14293V11.5714ZM1.71436 11.1429H2.14293V11.5714H1.71436V11.1429ZM2.14293 10.7143H2.5715V11.1429H2.14293V10.7143ZM2.5715 11.1429H3.00007V11.5714H2.5715V11.1429ZM2.5715 10.2857H3.00007V10.7143H2.5715V10.2857ZM3.00007 9.85714H3.42864V10.2857H3.00007V9.85714ZM3.85721 9.85714H4.28578V10.2857H3.85721V9.85714ZM4.28578 9.42857H4.71436V9.85714H4.28578V9.42857ZM4.71436 9H5.14293V9.42857H4.71436V9ZM18.7972 13.7143C18.6764 13.7149 18.5567 13.6915 18.4449 13.6457C18.3332 13.5999 18.2315 13.5324 18.1459 13.4472C18.0603 13.362 17.9924 13.2607 17.946 13.1491C17.8996 13.0376 17.8758 12.9179 17.8758 12.7971V11.7857H18.3044V12.8357C18.3044 12.9659 18.3561 13.0907 18.4481 13.1827C18.5401 13.2747 18.6649 13.3264 18.7951 13.3264C18.9252 13.3264 19.05 13.2747 19.1421 13.1827C19.2341 13.0907 19.2858 12.9659 19.2858 12.8357V11.7857H19.7144V12.7971C19.7144 13.3029 19.3029 13.7143 18.7972 13.7143Z" fill="#0C7BFE"/>
<path fill-rule="evenodd" clip-rule="evenodd" d="M16.7999 13.7143C17.3356 13.7143 17.7728 13.2857 17.7728 12.75C17.7722 12.6224 17.7464 12.4962 17.697 12.3786C17.6475 12.2611 17.5753 12.1544 17.4845 12.0648C17.3937 11.9752 17.2861 11.9044 17.1679 11.8565C17.0497 11.8086 16.9232 11.7846 16.7956 11.7857C16.2599 11.7857 15.8228 12.2143 15.8228 12.75C15.8233 12.8772 15.8489 13.003 15.8981 13.1203C15.9473 13.2376 16.0191 13.3441 16.1095 13.4336C16.1998 13.5231 16.3069 13.594 16.4246 13.6422C16.5424 13.6903 16.6684 13.7148 16.7956 13.7143H16.7999ZM16.7999 13.2814C17.0956 13.2814 17.3356 13.0414 17.3356 12.7457C17.3356 12.45 17.0956 12.2143 16.7956 12.2143C16.4956 12.2143 16.2556 12.45 16.2556 12.7457C16.2556 13.0414 16.4999 13.2857 16.7999 13.2857V13.2814Z" fill="#0C7BFE"/>
<path d="M15.0941 13.2984C14.9757 13.4646 14.8077 13.5891 14.6142 13.6542C14.4208 13.7192 14.2117 13.7215 14.0168 13.6607C13.822 13.5998 13.6513 13.479 13.5293 13.3154C13.4072 13.1519 13.3399 12.9539 13.337 12.7498C13.3362 12.5426 13.4021 12.3408 13.525 12.174C13.6479 12.0072 13.8212 11.8845 14.0193 11.8239C14.2174 11.7633 14.4297 11.7681 14.6248 11.8376C14.82 11.9071 14.9875 12.0376 15.1027 12.2098L14.7727 12.5269C14.7194 12.4204 14.6317 12.3351 14.5237 12.2848C14.4157 12.2346 14.2939 12.2224 14.1781 12.2502C14.0623 12.2781 13.9593 12.3443 13.886 12.4381C13.8126 12.5319 13.7732 12.6478 13.7741 12.7669C13.7761 12.8849 13.8175 12.9989 13.8919 13.0905C13.9663 13.1821 14.0692 13.2462 14.1843 13.2724C14.2994 13.2985 14.4199 13.2853 14.5266 13.2349C14.6333 13.1844 14.7199 13.0996 14.7727 12.9941L15.0941 13.2984ZM12.6513 12.7541C12.6513 13.0541 12.407 13.2898 12.1113 13.2898C11.8113 13.2898 11.5713 13.0498 11.5713 12.7541C11.5713 12.4626 11.8156 12.2226 12.1113 12.2226C12.4113 12.2226 12.6513 12.4626 12.6513 12.7541Z" fill="#0C7BFE"/>
<path fill-rule="evenodd" clip-rule="evenodd" d="M5.32714 15C3.85714 14.7043 3.55714 13.6586 3.41143 13.2858H4.71429V12.8572H3.69429V12.4286H3.99857V12H4.42714V11.5715H3.85714V12H3.42857V11.1429H3V10.7143H4.28571V10.2858H4.71429V9.85718H5.14286V9.42861H5.57143V9.85718H6.42857V9.26147H6.21V9.02147C6.84885 8.63296 7.60519 8.48471 8.34344 8.6033C9.08168 8.72189 9.75354 9.09956 10.2386 9.66861C12.2571 9.33433 12.6214 10.7315 12.5529 11.4729C13.2557 11.7729 13.4743 12.5529 13.4957 12.9043C13.4957 13.05 13.4786 13.1872 13.4529 13.3158C13.4529 13.1872 13.35 13.0843 13.2171 13.0843C13.0886 13.0843 12.9814 13.1872 12.9814 13.3158C12.9814 13.3687 12.9992 13.4201 13.032 13.4617C13.0648 13.5033 13.1106 13.5327 13.1621 13.545C13.2135 13.5574 13.2677 13.5521 13.3158 13.5299C13.3639 13.5078 13.4031 13.4701 13.4271 13.4229C13.2171 14.4172 12.3043 15 11.9271 15H5.32714ZM5.57143 10.2858H6.42857V10.7143H5.57143V10.2858ZM4.92857 12.75C4.92857 12.4943 5.03017 12.249 5.211 12.0682C5.39184 11.8873 5.63711 11.7858 5.89286 11.7858C6.1486 11.7858 6.39387 11.8873 6.57471 12.0682C6.75555 12.249 6.85714 12.4943 6.85714 12.75V13.7143H6.42857V12.7115C6.42857 12.5694 6.37213 12.4331 6.27166 12.3327C6.1712 12.2322 6.03494 12.1758 5.89286 12.1758C5.75078 12.1758 5.61452 12.2322 5.51405 12.3327C5.41358 12.4331 5.35714 12.5694 5.35714 12.7115V13.7143H4.92857V12.75ZM8.03571 13.7143C7.50429 13.7143 7.07143 13.2858 7.07143 12.75V11.7858H7.5V12.7886C7.5 12.9307 7.55644 13.067 7.65691 13.1674C7.75737 13.2679 7.89363 13.3243 8.03571 13.3243C8.17779 13.3243 8.31406 13.2679 8.41452 13.1674C8.51499 13.067 8.57143 12.9307 8.57143 12.7886V11.7858H9V12.75C9 13.2815 8.57143 13.7143 8.03571 13.7143ZM13.0886 12.75C13.088 12.8776 13.0623 13.0038 13.0128 13.1214C12.9633 13.2389 12.8911 13.3456 12.8003 13.4352C12.7095 13.5248 12.602 13.5956 12.4837 13.6435C12.3655 13.6914 12.239 13.7155 12.1114 13.7143C11.5714 13.7143 11.1343 13.2858 11.1343 12.75C11.1348 12.6225 11.1606 12.4963 11.2101 12.3787C11.2595 12.2611 11.3317 12.1545 11.4225 12.0649C11.5133 11.9753 11.6209 11.9045 11.7391 11.8566C11.8574 11.8087 11.9839 11.7846 12.1114 11.7858C12.6514 11.7858 13.0886 12.2143 13.0886 12.75ZM10.8814 13.2986C10.7624 13.4666 10.5932 13.5928 10.3982 13.659C10.2032 13.7252 9.99227 13.728 9.79552 13.6672C9.59876 13.6064 9.42626 13.4849 9.30264 13.3202C9.17901 13.1555 9.11059 12.956 9.10714 12.75C9.10984 12.5425 9.17854 12.3413 9.30328 12.1754C9.42803 12.0096 9.60233 11.8877 9.80095 11.8276C9.99957 11.7674 10.2122 11.7721 10.408 11.8408C10.6038 11.9096 10.7726 12.0389 10.89 12.21L10.5557 12.5315C10.5044 12.4239 10.4181 12.3369 10.3109 12.2847C10.2037 12.2324 10.082 12.2181 9.96563 12.2439C9.84925 12.2698 9.74508 12.3344 9.67011 12.427C9.59514 12.5197 9.55381 12.6351 9.55286 12.7543C9.55286 13.0458 9.78857 13.2772 10.08 13.2772C10.2857 13.2772 10.4657 13.1615 10.5514 12.99L10.8814 13.2986Z" fill="#0C7BFE"/>
<path d="M3.42843 12.0002V12.4288H2.57129V12.0002H3.42843ZM15.2484 11.1431H15.677V13.7145H15.2484V11.1431ZM21.857 11.1431H21.4284V11.7859H20.8799C20.3441 11.7859 19.907 12.2145 19.907 12.7502C19.9076 12.8774 19.9332 13.0032 19.9824 13.1205C20.0316 13.2378 20.1034 13.3443 20.1937 13.4338C20.2841 13.5234 20.3911 13.5943 20.5089 13.6424C20.6266 13.6906 20.7527 13.7151 20.8799 13.7145C21.3984 13.7145 21.8227 13.3159 21.8527 12.8145H21.857V11.1431ZM21.4284 12.7716C21.4284 13.0716 21.1884 13.3159 20.8799 13.3159C20.5756 13.3159 20.3227 13.0716 20.3227 12.7674C20.3227 12.4674 20.5756 12.2231 20.8799 12.2231H21.4284V12.7674V12.7716Z" fill="#0C7BFE"/>
</g>
<defs>
<clipPath id="clip0_31_14625">
<rect width="24" height="24" fill="white"/>
</clipPath>
</defs>
</svg>

<svg xmlns="http://www.w3.org/2000/svg" width="24" height="24" fill="none" viewBox="0 0 24 24"><g clip-path="url(#a)"><path fill="#F0F3FA" d="M0 0h24v24H0z"/><path fill="#0C7BFE" d="M2.143 11.571h.429V12h-.43zm-.429-.428h.429v.428h-.429zm.429-.429h.429v.429h-.43zm.429.429H3v.428h-.429zm0-.857H3v.428h-.429zM3 9.857h.429v.429H3zm.857 0h.429v.429h-.429zm.429-.428h.428v.428h-.428zM4.714 9h.429v.429h-.429zm14.083 4.714a.917.917 0 0 1-.921-.917v-1.011h.428v1.05a.49.49 0 1 0 .982 0v-1.05h.428v1.011a.92.92 0 0 1-.917.917"/><path fill="#0C7BFE" fill-rule="evenodd" d="M16.8 13.714a.97.97 0 0 0 .973-.964.97.97 0 0 0-.977-.964.97.97 0 0 0-.973.964.967.967 0 0 0 .973.964zm0-.433a.533.533 0 1 0-.004-1.067c-.3 0-.54.236-.54.532 0 .295.244.54.544.54z" clip-rule="evenodd"/><path fill="#0C7BFE" d="M15.094 13.298a.968.968 0 0 1-1.757-.548.964.964 0 0 1 1.766-.54l-.33.317a.527.527 0 0 0-.999.24.527.527 0 0 0 .999.227zm-2.443-.544c0 .3-.244.536-.54.536-.3 0-.54-.24-.54-.536 0-.291.245-.531.54-.531.3 0 .54.24.54.531"/><path fill="#0C7BFE" fill-rule="evenodd" d="M5.327 15c-1.47-.296-1.77-1.341-1.916-1.714h1.303v-.429h-1.02v-.428H4V12h.428v-.428h-.57V12H3.43v-.857H3v-.429h1.286v-.428h.428v-.429h.429V9.43h.428v.428h.858v-.596H6.21v-.24a3.146 3.146 0 0 1 4.029.648c2.018-.335 2.382 1.063 2.314 1.804.703.3.921 1.08.943 1.431 0 .146-.017.283-.043.412a.23.23 0 0 0-.236-.232.234.234 0 0 0-.236.232.236.236 0 0 0 .446.107c-.21.994-1.123 1.577-1.5 1.577zm.244-4.714h.858v.428H5.57zM4.93 12.75a.964.964 0 0 1 1.928 0v.964H6.43v-1.003a.536.536 0 1 0-1.072 0v1.003H4.93zm3.107.964a.963.963 0 0 1-.965-.964v-.964H7.5v1.003a.536.536 0 1 0 1.071 0v-1.003H9v.964a.963.963 0 0 1-.964.964m5.053-.964a.97.97 0 0 1-.978.964.97.97 0 0 1-.977-.964.967.967 0 0 1 .977-.964c.54 0 .978.428.978.964m-2.208.549a.977.977 0 0 1-1.774-.549.977.977 0 0 1 1.783-.54l-.334.321a.527.527 0 0 0-1.003.223c0 .292.236.523.527.523a.53.53 0 0 0 .471-.287z" clip-rule="evenodd"/><path fill="#0C7BFE" d="M3.428 12v.429h-.857V12zm11.82-.857h.429v2.571h-.429zm6.609 0h-.429v.643h-.548a.97.97 0 0 0-.973.964.97.97 0 0 0 .973.964.97.97 0 0 0 .973-.9h.004zm-.429 1.629c0 .3-.24.544-.548.544a.554.554 0 0 1-.557-.549c0-.3.253-.544.557-.544h.548v.549"/></g><defs><clipPath id="a"><path fill="#fff" d="M0 0h24v24H0z"/></clipPath></defs></svg>
